local/share/icons/dracula-icons-main/scalable/apps/elisa.svg

<?xml version="1.0" encoding="UTF-8"?>
<svg xmlns="http://www.w3.org/2000/svg" xmlns:xlink="http://www.w3.org/1999/xlink" width="64" height="64" viewBox="0 0 64 64">
<defs>
<filter id="filter-remove-color" x="0%" y="0%" width="100%" height="100%">
<feColorMatrix color-interpolation-filters="sRGB" values="0 0 0 0 1 0 0 0 0 1 0 0 0 0 1 0 0 0 1 0" />
</filter>
<mask id="mask-0">
<g filter="url(#filter-remove-color)">
<rect x="-6.4" y="-6.4" width="76.8" height="76.8" fill="rgb(0%, 0%, 0%)" fill-opacity="0.5"/>
</g>
</mask>
<clipPath id="clip-0">
<rect x="0" y="0" width="64" height="64"/>
</clipPath>
<g id="source-1159" clip-path="url(#clip-0)">
<path fill-rule="nonzero" fill="rgb(25.882353%, 25.098039%, 28.235294%)" fill-opacity="1" d="M 25 26 L 25 34 L 33.222656 34 C 33.503906 32.710938 33.664062 31.375 33.664062 30 C 33.664062 28.625 33.503906 27.289062 33.222656 26 Z M 25 26 "/>
</g>
</defs>
<path fill-rule="nonzero" fill="rgb(18.039216%, 18.039216%, 18.039216%)" fill-opacity="1" d="M 59 32 C 59 46.910156 46.910156 59 32 59 C 17.089844 59 5 46.910156 5 32 C 5 17.089844 17.089844 5 32 5 C 46.910156 5 59 17.089844 59 32 Z M 59 32 "/>
<path fill-rule="nonzero" fill="rgb(30.196078%, 30.196078%, 30.196078%)" fill-opacity="1" d="M 19.144531 46 L 17.972656 55.03125 C 22.195312 57.617188 27.046875 58.988281 32 59 C 36.949219 58.992188 41.804688 57.621094 46.027344 55.039062 L 44.855469 46 L 19.140625 46 Z M 19.144531 46 "/>
<path fill-rule="nonzero" fill="rgb(50.980392%, 85.882353%, 67.058824%)" fill-opacity="1" d="M 17.039062 12 C 13.871094 14.367188 11.3125 17.449219 9.566406 21 L 54.429688 21 C 52.683594 17.449219 50.121094 14.367188 46.949219 12 Z M 8.011719 39 C 8.742188 41.492188 9.855469 43.851562 11.3125 46 L 52.703125 46 C 54.15625 43.851562 55.265625 41.488281 55.996094 39 Z M 8.011719 39 "/>
<path fill-rule="nonzero" fill="rgb(30.196078%, 30.196078%, 30.196078%)" fill-opacity="1" d="M 9.585938 21 C 7.894531 24.421875 7.011719 28.183594 7 32 C 7.003906 34.371094 7.347656 36.726562 8.015625 39 L 55.984375 39 C 56.652344 36.726562 56.996094 34.371094 57 32 C 56.996094 28.183594 56.117188 24.421875 54.433594 21 L 9.582031 21 Z M 9.585938 21 "/>
<path fill-rule="nonzero" fill="rgb(96.470588%, 96.078431%, 95.686275%)" fill-opacity="1" d="M 23 30 C 23 32.210938 21.210938 34 19 34 C 16.789062 34 15 32.210938 15 30 C 15 27.789062 16.789062 26 19 26 C 21.210938 26 23 27.789062 23 30 Z M 23 30 "/>
<path fill-rule="nonzero" fill="rgb(96.470588%, 96.078431%, 95.686275%)" fill-opacity="1" d="M 49.816406 30 C 49.816406 32.210938 48.027344 34 45.816406 34 C 43.609375 34 41.816406 32.210938 41.816406 30 C 41.816406 27.789062 43.609375 26 45.816406 26 C 48.027344 26 49.816406 27.789062 49.816406 30 Z M 49.816406 30 "/>
<path fill-rule="nonzero" fill="rgb(58.039216%, 57.647059%, 56.470588%)" fill-opacity="1" d="M 25 26 L 39 26 L 39 34 L 25 34 Z M 25 26 "/>
<g mask="url(#mask-0)">
<use xlink:href="#source-1159"/>
</g>
</svg>

<svg width="64" height="64" enable-background="new" version="1.0" viewBox="0 0 64 64" xmlns="http://www.w3.org/2000/svg">
 <title>Adwaita Icon Template</title>
 <circle cx="32" cy="32" r="27" fill="#2e2e2e" stroke-width="3.7796" style="paint-order:stroke fill markers"/>
 <path d="m19.143 46-1.1719 9.0312a27 27 0 0 0 14.029 3.9688 27 27 0 0 0 14.029-3.9609l-1.1719-9.0391h-25.715z" enable-background="new" fill="#4d4d4d"/>
 <path d="m17.041 12a25 25 0 0 0-7.4746 9h44.865a25 25 0 0 0-7.4824-9h-29.908zm-9.0293 27a25 25 0 0 0 3.3027 7h41.389a25 25 0 0 0 3.291-7h-47.982z" fill="#82dbab"/>
 <path d="m9.584 21a25 25 0 0 0-2.584 11 25 25 0 0 0 1.0137 7h47.969a25 25 0 0 0 1.0176-7 25 25 0 0 0-2.5684-11h-44.848z" enable-background="new" fill="#4d4d4d"/>
 <circle cx="19" cy="30" r="4" enable-background="new" fill="#f6f5f4"/>
 <circle cx="45.818" cy="30" r="4" enable-background="new" fill="#f6f5f4"/>
 <rect x="25" y="26" width="14" height="8" enable-background="new" fill="#949390"/>
 <path d="m25 26v8h8.222c0.28198-1.2899 0.44153-2.6255 0.44153-4s-0.15955-2.7101-0.44153-4z" enable-background="new" fill="#424048" opacity=".5"/>
</svg>
